X:7
T:Thunderstruck
R:misc
C:Angus Young & Malcolm Young
H:This is the guitar riff for the song, transposed for ITM instruments.
H:Originally in key of B.
D:AC/DC
Z:id:hn-misc-7
M:C|
L:1/8
Q:1/2=130
K:Amix
|: cAeA cAeA | cAeA cAeA :||: dA=fA dA=fA | dA=fA dA=fA :|
|: cAeA cAeA | cAeA cAeA :||: dA=fA dA=fA | dA=fA dA=fA :|
|: aAgA fAgA | fAeA fAdA | eAcA dAcA | dAcA dAcA :|
|: aAgA fAgA | fAeA fAdA | eAcA dAcA | dAcA dAcA :|

